X:7
T:BLCKJKE- Black Joke
S:from single sheet song with music, c 1730
Q:1/4=120
L:1/8
M:6/8
K:G
D|D2FG2G|A2A A3/2G/ A|B3/2 c/ B B3/2 A/ G|A3/2 B/ A A2 G/ F/|\
G3E2D|D3/2 E/ F G2::B|B2d d3/2 e/ d|e3/2f/ g d2B|B2d d3/2e/ d|\
e3/2 f/ gd2B|c3/2 c/ a B3/2 B/ g|A3/2 B/ A A2G/ A/|\
B3/2 c/ B B3/2 A/ G|A3/2 B/ AA2 G/ F/|G3E2D|D3/2 E/ FG2|]

